lib/functional/security&warnings/circle-wavy-warning.svg

<svg xmlns="http://www.w3.org/2000/svg" fill="none" stroke="currentColor" aria-hidden="true" viewBox="0 0 32 32"><g id="Icon-CircleWavyWarning"><g clip-path="url(#clip0_10_570)"><g id="size=md (32px)"><path id="Vector" stroke-linecap="round" stroke-linejoin="round" stroke-width="2" d="M6.8125 25.1875C5.6625 24.0375 6.425 21.625 5.8375 20.2125C5.25 18.8 3 17.5625 3 16C3 14.4375 5.225 13.25 5.8375 11.7875C6.45 10.325 5.6625 7.9625 6.8125 6.8125C7.9625 5.6625 10.375 6.425 11.7875 5.8375C13.2 5.25 14.4375 3 16 3C17.5625 3 18.75 5.225 20.2125 5.8375C21.675 6.45 24.0375 5.6625 25.1875 6.8125C26.3375 7.9625 25.575 10.375 26.1625 11.7875C26.75 13.2 29 14.4375 29 16C29 17.5625 26.775 18.75 26.1625 20.2125C25.55 21.675 26.3375 24.0375 25.1875 25.1875C24.0375 26.3375 21.625 25.575 20.2125 26.1625C18.8 26.75 17.5625 29 16 29C14.4375 29 13.25 26.775 11.7875 26.1625C10.325 25.55 7.9625 26.3375 6.8125 25.1875Z"/><path id="Vector_2" stroke-linecap="round" stroke-linejoin="round" stroke-width="2" d="M16 10V17"/><path id="Vector_3" fill="#101828" d="M16 23C16.8284 23 17.5 22.3284 17.5 21.5C17.5 20.6716 16.8284 20 16 20C15.1716 20 14.5 20.6716 14.5 21.5C14.5 22.3284 15.1716 23 16 23Z"/></g></g></g><defs><clipPath id="clip0_10_570"><rect width="32" height="32" fill="white" rx="5"/></clipPath></defs></svg>

<svg xmlns="http://www.w3.org/2000/svg" fill="none" stroke="currentColor" aria-hidden="true" viewBox="0 0 32 32"><g clip-path="url(#a)"><path stroke-linecap="round" stroke-linejoin="round" stroke-width="2" d="M6.813 25.188c-1.15-1.15-.388-3.563-.975-4.976C5.25 18.8 3 17.563 3 16c0-1.563 2.225-2.75 2.838-4.213.612-1.462-.176-3.825.974-4.975 1.15-1.15 3.563-.387 4.975-.974C13.2 5.25 14.438 3 16 3c1.563 0 2.75 2.225 4.212 2.838 1.463.612 3.826-.176 4.976.974s.387 3.563.975 4.975C26.75 13.2 29 14.438 29 16c0 1.563-2.225 2.75-2.837 4.212-.613 1.463.174 3.826-.976 4.976s-3.562.387-4.975.975C18.8 26.75 17.563 29 16 29c-1.563 0-2.75-2.225-4.213-2.837-1.462-.613-3.825.174-4.975-.976ZM16 10v7"/><path fill="#101828" d="M16 23a1.5 1.5 0 1 0 0-3 1.5 1.5 0 0 0 0 3Z"/></g><defs><clipPath id="a"><rect width="32" height="32" fill="#fff" rx="5"/></clipPath></defs></svg>
